src/main/resources/icons/JavaScriptLanguageIcons/icons/logos/Foundation.svg

<svg xmlns="http://www.w3.org/2000/svg" width="16" height="16" viewBox="0 0 16 16">
  <g fill="none" fill-rule="evenodd">
    <path fill="#1C8AAB" fill-rule="nonzero" d="M15,12.6666667 C15,13.95 13.95,15 12.6666667,15 L3.33333333,15 C2.05,15 1,13.95 1,12.6666667 L1,3.33333333 C1,2.05 2.05,1 3.33333333,1 L12.6666667,1 C13.95,1 15,2.05 15,3.33333333 L15,12.6666667 Z"/>
    <path fill="#259DC0" fill-rule="nonzero" d="M5,15 L5,1 L6,1 L6,15 L5,15 Z M4,15 L3.33333333,15 C3.22022324,15 3.10892575,14.9918433 3,14.9760891 L3,1.02391087 C3.10892575,1.00815667 3.22022324,1 3.33333333,1 L4,1 L4,15 Z M14,14.5786837 C13.7079762,14.7833132 13.3674858,14.9229388 13,14.9760891 L13,1.02391087 C13.3674858,1.07706122 13.7079762,1.21668681 14,1.42131626 L14,14.5786837 Z M15,12.6666667 L15,3.33333333 L15,12.6666667 Z M12,15 L11,15 L11,1 L12,1 L12,15 Z M10,15 L9,15 L9,1 L10,1 L10,15 Z M8,15 L7,15 L7,1 L8,1 L8,15 Z M2,14.5786837 C1.39650314,14.1557962 1,13.4552873 1,12.6666667 L1,3.33333333 C1,2.54471269 1.39650314,1.84420385 2,1.42131626 L2,14.5786837 Z"/>
    <path fill="#A4DDEE" fill-rule="nonzero" d="M6.5,9 L6.5,12 L5,12 L5,4 L6.5,4 L11,4 L11,5.5 L6.5,5.5 L6.5,7.5 L11,7.5 L11,9 L6.5,9 Z"/>
  </g>
</svg>

<svg xmlns="http://www.w3.org/2000/svg" width="16" height="16" viewBox="0 0 16 16"><rect id="frame" width="16" height="16" fill="none"/><g fill="none" fill-rule="nonzero"><path fill="#1C8AAB" d="M15 12.667A2.34 2.34 0 0 1 12.667 15H3.333A2.34 2.34 0 0 1 1 12.667V3.333A2.34 2.34 0 0 1 3.333 1h9.334A2.34 2.34 0 0 1 15 3.333v9.334z"/><path fill="#259DC0" d="M5 15V1h1v14H5zm-1 0h-.667c-.113 0-.224-.008-.333-.024V1.024c.109-.016.22-.024.333-.024H4v14zm10-.421a2.32 2.32 0 0 1-1 .397V1.024a2.32 2.32 0 0 1 1 .397V14.58zm1-1.912V3.333v9.334zM12 15h-1V1h1v14zm-2 0H9V1h1v14zm-2 0H7V1h1v14zm-6-.421a2.335 2.335 0 0 1-1-1.912V3.333c0-.788.397-1.489 1-1.912V14.58z"/><path fill="#A4DDEE" d="M6.5 9v3H5V4h6v1.5H6.5v2H11V9H6.5z"/></g></svg>
